X:84
T:Cook in the Kitchen
R:jig
Z:Transcribed by Dave Marshall
M:6/8
K:G
|: DGG GAG | =FDE F2E | DGG GFG | Add cAF |
DGG GAG | =FDE F2d | cAG FGA | BGF G3 :|
|:~B3 BAG | ABA AGF | DGG GFG | Add cAG |
~B3 BAG | ABA A2d | cAG FGA | BGF G3 :|
|:d2e f2g | a2g fed | cAG FGA | B3 cAF |
d2e f2g | a2g fed | cAG FGA | BGF G3 :|
